packages/core/src/svgs/pbx.svg

<svg width="24" height="24" viewBox="0 0 24 24" fill="none" xmlns="http://www.w3.org/2000/svg">
<g clip-path="url(#clip0_31_15776)">
<path d="M0 0H24V24H0V0Z" fill="#F0F3FA"/>
<path d="M14.0786 15.0131H6.42859V9.25738C6.42859 7.21738 8.10002 5.56738 10.1657 5.56738H14.0786C16.7143 5.57167 18.8572 7.68453 18.8572 10.2902C18.8572 12.896 16.7143 15.0131 14.0786 15.0131Z" fill="url(#paint0_linear_31_15776)"/>
<path d="M10.2514 9.34706C7.91145 8.18991 7.72287 7.03277 7.92859 6.3042C7.4642 6.64496 7.08646 7.09017 6.82589 7.60387C6.56532 8.11756 6.42922 8.68534 6.42859 9.26134V15.1199H14.0786C15.2057 15.1199 16.2386 14.6228 17.0486 13.9842C16.65 11.1899 13.4486 10.9242 10.2514 9.34706Z" fill="url(#paint1_linear_31_15776)"/>
<path d="M6.42859 10.5513V16.727C6.42859 18.3041 8.03573 19.3327 9.40287 18.6341L9.85287 18.4027C12.0814 17.2456 11.85 13.8813 9.48859 13.0627C7.79573 12.4884 6.42859 12.1027 6.42859 10.5513Z" fill="url(#paint2_linear_31_15776)"/>
<path d="M10.74 5.5713C11.2971 6.18416 12.48 6.95987 15.0343 7.45702C16.3268 7.70977 17.5571 8.21357 18.6557 8.93987C18.3538 7.9624 17.7463 7.1076 16.9223 6.50121C16.0984 5.89483 15.1016 5.56888 14.0786 5.5713H10.74Z" fill="url(#paint3_linear_31_15776)"/>
</g>
<defs>
<linearGradient id="paint0_linear_31_15776" x1="12.0814" y1="10.646" x2="14.91" y2="7.32024" gradientUnits="userSpaceOnUse">
<stop stop-color="#0080EE"/>
<stop offset="1" stop-color="#01C5F6"/>
</linearGradient>
<linearGradient id="paint1_linear_31_15776" x1="10.1229" y1="13.3328" x2="12.2786" y2="10.3113" gradientUnits="userSpaceOnUse">
<stop stop-color="#725BFF"/>
<stop offset="1" stop-color="#9665FB"/>
</linearGradient>
<linearGradient id="paint2_linear_31_15776" x1="7.67145" y1="18.8527" x2="9.84859" y2="13.487" gradientUnits="userSpaceOnUse">
<stop stop-color="#3C31D6"/>
<stop offset="0.98" stop-color="#2880FA"/>
</linearGradient>
<linearGradient id="paint3_linear_31_15776" x1="16.2386" y1="6.35559" x2="15.2186" y2="7.75702" gradientUnits="userSpaceOnUse">
<stop stop-color="#00E5CC"/>
<stop offset="0.94" stop-color="#10DCC6"/>
</linearGradient>
<clipPath id="clip0_31_15776">
<rect width="24" height="24" fill="white"/>
</clipPath>
</defs>
</svg>

<svg xmlns="http://www.w3.org/2000/svg" width="24" height="24" fill="none" viewBox="0 0 24 24"><g clip-path="url(#a)"><path fill="#F0F3FA" d="M0 0h24v24H0z"/><path fill="url(#b)" d="M14.079 15.013h-7.65V9.257c0-2.04 1.671-3.69 3.737-3.69h3.913c2.635.005 4.778 2.118 4.778 4.723s-2.143 4.723-4.778 4.723"/><path fill="url(#c)" d="M10.251 9.347C7.911 8.19 7.723 7.033 7.93 6.304a3.67 3.67 0 0 0-1.5 2.957v5.859h7.65c1.127 0 2.16-.497 2.97-1.136-.399-2.794-3.6-3.06-6.798-4.637"/><path fill="url(#d)" d="M6.429 10.551v6.176c0 1.577 1.607 2.606 2.974 1.907l.45-.231c2.228-1.157 1.997-4.522-.364-5.34-1.693-.575-3.06-.96-3.06-2.512"/><path fill="url(#e)" d="M10.74 5.571c.557.613 1.74 1.389 4.294 1.886 1.293.253 2.523.757 3.622 1.483a4.78 4.78 0 0 0-4.577-3.369z"/></g><defs><linearGradient id="b" x1="12.081" x2="14.91" y1="10.646" y2="7.32" gradientUnits="userSpaceOnUse"><stop stop-color="#0080EE"/><stop offset="1" stop-color="#01C5F6"/></linearGradient><linearGradient id="c" x1="10.123" x2="12.279" y1="13.333" y2="10.311" gradientUnits="userSpaceOnUse"><stop stop-color="#725BFF"/><stop offset="1" stop-color="#9665FB"/></linearGradient><linearGradient id="d" x1="7.671" x2="9.849" y1="18.853" y2="13.487" gradientUnits="userSpaceOnUse"><stop stop-color="#3C31D6"/><stop offset=".98" stop-color="#2880FA"/></linearGradient><linearGradient id="e" x1="16.239" x2="15.219" y1="6.356" y2="7.757" gradientUnits="userSpaceOnUse"><stop stop-color="#00E5CC"/><stop offset=".94" stop-color="#10DCC6"/></linearGradient><clipPath id="a"><path fill="#fff" d="M0 0h24v24H0z"/></clipPath></defs></svg>
